public/cart.svg

<svg xmlns="http://www.w3.org/2000/svg" width="24" height="24" fill="none"><path stroke="#090937" stroke-linecap="round" stroke-linejoin="round" stroke-width="2" d="M2 2h2.22222l.44445 2.22222m1.77777 8.88888H17.5556L22 4.22222H4.66667m1.77777 8.88888L4.66667 4.22222m1.77777 8.88888-2.54765 2.5477c-.69997.6999-.20422 1.8968.78567 1.8968H17.5556m0 0c-1.2273 0-2.2223.9949-2.2223 2.2222S16.3283 22 17.5556 22s2.2222-.9949 2.2222-2.2222-.9949-2.2222-2.2222-2.2222Zm-8.88893 2.2222c0 1.2273-.99493 2.2222-2.22223 2.2222-1.22729 0-2.22222-.9949-2.22222-2.2222s.99493-2.2222 2.22222-2.2222c1.2273 0 2.22223.9949 2.22223 2.2222Z"/></svg>

<svg width="24" height="24" viewBox="0 0 24 24" fill="none" xmlns="http://www.w3.org/2000/svg">
<g id="Icon/Outline/shopping-cart">
<path id="Icon" d="M2 2H4.22222L4.66667 4.22222M6.44444 13.1111H17.5556L22 4.22222H4.66667M6.44444 13.1111L4.66667 4.22222M6.44444 13.1111L3.89679 15.6588C3.19682 16.3587 3.69257 17.5556 4.68246 17.5556H17.5556M17.5556 17.5556C16.3283 17.5556 15.3333 18.5505 15.3333 19.7778C15.3333 21.0051 16.3283 22 17.5556 22C18.7829 22 19.7778 21.0051 19.7778 19.7778C19.7778 18.5505 18.7829 17.5556 17.5556 17.5556ZM8.66667 19.7778C8.66667 21.0051 7.67174 22 6.44444 22C5.21715 22 4.22222 21.0051 4.22222 19.7778C4.22222 18.5505 5.21715 17.5556 6.44444 17.5556C7.67174 17.5556 8.66667 18.5505 8.66667 19.7778Z" stroke="#090937" stroke-width="2" stroke-linecap="round" stroke-linejoin="round"/>
</g>
</svg>
